X: 3
T: The Silver Spear
R: reel
M: 4/4
L: 1/8
K: Amaj
CE E2 FECE | cABA FAED | CE E2 FECE | cABA F2 ED |
CE E2 FECE | cABA FABc | dFBd cEAc | BAFE FA A2 :|
ce e2 df f2 | ecAc BcAB | ce e2 df f2 | ecAc B2 AB |
ce e2 df f2 | ecAc BEAc | dFBd cEAc | BAFE FA A2 :|


Tune 182	Setting 182

